builds/development/lbd/img/secure.svg

<?xml version="1.0" encoding="UTF-8"?>
<svg width="27px" height="38px" viewBox="0 0 27 38" version="1.1" xmlns="http://www.w3.org/2000/svg" xmlns:xlink="http://www.w3.org/1999/xlink">
    <!-- Generator: Sketch 50.2 (55047) - http://www.bohemiancoding.com/sketch -->
    <title>Icon</title>
    <desc>Created with Sketch.</desc>
    <defs></defs>
    <g id="HP---Desktop" stroke="none" stroke-width="1" fill="none" fill-rule="evenodd">
        <g id="Desktop---Not-logged" transform="translate(-1242.000000, -1530.000000)" fill="#00BCDC">
            <g id="Key-points" transform="translate(81.000000, 1364.000000)">
                <g id="Card-4" transform="translate(1019.000000, 130.000000)">
                    <g id="Icon" transform="translate(142.000000, 36.000000)">
                        <path d="M17,28 C17,29.656 15.656,31 14,31 C12.344,31 11,29.656 11,28 C11,26.344 12.344,25 14,25 C15.656,25 17,26.344 17,28" id="Fill-212"></path>
                        <path d="M3.85714286,34.2 L3.85714286,20.9 L23.1428571,20.9 L23.1447857,34.2 L3.85714286,34.2 Z M7.71428571,9.5 C7.71428571,6.3574 10.3101429,3.8 13.5,3.8 C16.6898571,3.8 19.2857143,6.3574 19.2857143,9.5 L19.2857143,17.1 L7.71428571,17.1 L7.71428571,9.5 Z M23.1428571,17.1 L23.1428571,9.5 C23.1428571,4.2617 18.8170714,0 13.5,0 C8.18292857,0 3.85714286,4.2617 3.85714286,9.5 L3.85714286,17.1 C1.72992857,17.1 0,18.8024 0,20.9 L0,34.2 C0,36.2957 1.72992857,38 3.85714286,38 L23.1428571,38 C25.2700714,38 27,36.2957 27,34.2 L27,20.9 C27,18.8024 25.2700714,17.1 23.1428571,17.1 L23.1428571,17.1 Z" id="Fill-213"></path>
                    </g>
                </g>
            </g>
        </g>
    </g>
</svg>

<svg width="27" height="38" xmlns="http://www.w3.org/2000/svg"><g fill="#00BCDC" fill-rule="evenodd"><path d="M17 28a3.001 3.001 0 0 1-6 0 3.001 3.001 0 0 1 6 0"/><path d="M3.857 34.2V20.9h19.286l.002 13.3H3.857zM7.714 9.5c0-3.143 2.596-5.7 5.786-5.7 3.19 0 5.786 2.557 5.786 5.7v7.6H7.714V9.5zm15.429 7.6V9.5c0-5.238-4.326-9.5-9.643-9.5-5.317 0-9.643 4.262-9.643 9.5v7.6C1.73 17.1 0 18.802 0 20.9v13.3C0 36.296 1.73 38 3.857 38h19.286C25.27 38 27 36.296 27 34.2V20.9c0-2.098-1.73-3.8-3.857-3.8z"/></g></svg>
